src/assets/images/Roles_And_Access.svg

<svg width="193" height="140" viewBox="0 0 193 140" fill="none" xmlns="http://www.w3.org/2000/svg">
<g clip-path="url(#clip0_138_7039)">
<path d="M89.4324 104.063H1.02752C0.755117 104.063 0.493968 103.955 0.301348 103.762C0.108727 103.57 0.000355329 103.309 0 103.037V21.0683C0.000357372 20.7964 0.108732 20.5356 0.301352 20.3433C0.493972 20.151 0.755118 20.0428 1.02752 20.0424H89.4324C89.7048 20.0428 89.9659 20.151 90.1585 20.3433C90.3512 20.5356 90.4595 20.7964 90.4599 21.0683V103.037C90.4596 103.309 90.3512 103.57 90.1586 103.762C89.966 103.955 89.7048 104.063 89.4324 104.063V104.063Z" fill="#F1F1F1"/>
<path d="M103.368 116.321H14.9633C14.6909 116.321 14.4298 116.213 14.2371 116.02C14.0445 115.828 13.9361 115.567 13.9358 115.295V33.3261C13.9361 33.0541 14.0445 32.7934 14.2371 32.601C14.4298 32.4087 14.6909 32.3005 14.9633 32.3002H103.368C103.641 32.3005 103.902 32.4087 104.094 32.601C104.287 32.7934 104.395 33.0541 104.396 33.3261V115.295C104.395 115.567 104.287 115.828 104.094 116.02C103.902 116.212 103.641 116.321 103.368 116.321V116.321Z" fill="white"/>
<path d="M103.368 116.321H14.9633C14.6909 116.321 14.4298 116.213 14.2371 116.02C14.0445 115.828 13.9361 115.567 13.9358 115.295V33.3261C13.9361 33.0541 14.0445 32.7934 14.2371 32.601C14.4298 32.4087 14.6909 32.3005 14.9633 32.3002H103.368C103.641 32.3005 103.902 32.4087 104.094 32.601C104.287 32.7934 104.395 33.0541 104.396 33.3261V115.295C104.395 115.567 104.287 115.828 104.094 116.02C103.902 116.212 103.641 116.321 103.368 116.321V116.321ZM14.9633 32.7097C14.8001 32.7101 14.6436 32.775 14.5281 32.8902C14.4127 33.0055 14.3477 33.1617 14.3473 33.3247V115.295C14.3477 115.458 14.4127 115.614 14.5281 115.729C14.6436 115.845 14.8001 115.91 14.9633 115.91H103.368C103.531 115.91 103.688 115.845 103.803 115.73C103.919 115.614 103.984 115.458 103.984 115.295V33.3261C103.984 33.1631 103.919 33.0068 103.803 32.8916C103.688 32.7763 103.531 32.7114 103.368 32.7111L14.9633 32.7097Z" fill="#E6E6E6"/>
<path d="M86.9101 69.0464H31.4211C31.1487 69.0461 30.8875 68.9379 30.6948 68.7456C30.5022 68.5532 30.3939 68.2925 30.3936 68.0205V43.7075C30.3939 43.4355 30.5022 43.1748 30.6948 42.9825C30.8875 42.7901 31.1487 42.6819 31.4211 42.6816H86.9101C87.1826 42.6819 87.4437 42.7901 87.6364 42.9825C87.829 43.1748 87.9374 43.4355 87.9377 43.7075V68.0205C87.9374 68.2925 87.829 68.5532 87.6364 68.7456C87.4438 68.9379 87.1826 69.0461 86.9101 69.0464Z" fill="#6C63FF"/>
<path d="M40.0266 53.0779C39.8418 53.0782 39.6647 53.1518 39.5342 53.2823C39.4036 53.4129 39.3303 53.5899 39.3303 53.7744C39.3303 53.9588 39.4036 54.1358 39.5342 54.2664C39.6647 54.397 39.8418 54.4705 40.0266 54.4708H78.3046C78.4894 54.4705 78.6665 54.397 78.797 54.2664C78.9275 54.1358 79.0008 53.9588 79.0008 53.7744C79.0008 53.5899 78.9275 53.4129 78.797 53.2823C78.6665 53.1518 78.4894 53.0782 78.3046 53.0779H40.0266Z" fill="white"/>
<path d="M40.0266 57.2572C39.8418 57.2575 39.6647 57.3311 39.5342 57.4616C39.4036 57.5922 39.3303 57.7692 39.3303 57.9537C39.3303 58.1381 39.4036 58.3151 39.5342 58.4457C39.6647 58.5763 39.8418 58.6498 40.0266 58.6501H59.5683C59.7531 58.6498 59.9301 58.5763 60.0607 58.4457C60.1912 58.3151 60.2645 58.1381 60.2645 57.9537C60.2645 57.7692 60.1912 57.5922 60.0607 57.4616C59.9301 57.3311 59.7531 57.2575 59.5683 57.2572H40.0266Z" fill="white"/>
<path d="M23.28 78.0078C23.0952 78.0082 22.9181 78.0817 22.7876 78.2123C22.6571 78.3429 22.5837 78.5198 22.5837 78.7043C22.5837 78.8888 22.6571 79.0657 22.7876 79.1963C22.9181 79.3269 23.0952 79.4004 23.28 79.4008H95.0515C95.2363 79.4004 95.4134 79.3269 95.5439 79.1963C95.6744 79.0657 95.7478 78.8888 95.7478 78.7043C95.7478 78.5198 95.6744 78.3429 95.5439 78.2123C95.4134 78.0817 95.2363 78.0082 95.0515 78.0078H23.28Z" fill="#E6E6E6"/>
<path d="M23.28 82.1871C23.0952 82.1875 22.9181 82.261 22.7876 82.3916C22.6571 82.5221 22.5837 82.6991 22.5837 82.8836C22.5837 83.0681 22.6571 83.245 22.7876 83.3756C22.9181 83.5062 23.0952 83.5797 23.28 83.5801H76.3152C76.5 83.5797 76.6771 83.5062 76.8076 83.3756C76.9381 83.245 77.0114 83.0681 77.0114 82.8836C77.0114 82.6991 76.9381 82.5221 76.8076 82.3916C76.6771 82.261 76.5 82.1875 76.3152 82.1871H23.28Z" fill="#E6E6E6"/>
<path d="M23.28 86.2718C23.0952 86.2722 22.9181 86.3457 22.7876 86.4763C22.6571 86.6069 22.5837 86.7838 22.5837 86.9683C22.5837 87.1528 22.6571 87.3298 22.7876 87.4603C22.9181 87.5909 23.0952 87.6644 23.28 87.6648H95.0515C95.2363 87.6644 95.4134 87.5909 95.5439 87.4603C95.6744 87.3298 95.7478 87.1528 95.7478 86.9683C95.7478 86.7838 95.6744 86.6069 95.5439 86.4763C95.4134 86.3457 95.2363 86.2722 95.0515 86.2718H23.28Z" fill="#E6E6E6"/>
<path d="M23.28 90.4511C23.0952 90.4515 22.9181 90.525 22.7876 90.6556C22.6571 90.7862 22.5837 90.9631 22.5837 91.1476C22.5837 91.3321 22.6571 91.509 22.7876 91.6396C22.9181 91.7702 23.0952 91.8437 23.28 91.8441H76.3152C76.5 91.8437 76.6771 91.7702 76.8076 91.6396C76.9381 91.509 77.0114 91.3321 77.0114 91.1476C77.0114 90.9631 76.9381 90.7862 76.8076 90.6556C76.6771 90.525 76.5 90.4515 76.3152 90.4511H23.28Z" fill="#E6E6E6"/>
<path d="M94.6075 106.712H73.5744C73.302 106.711 73.0408 106.603 72.8482 106.411C72.6555 106.219 72.5472 105.958 72.5469 105.686V102.321C72.5472 102.049 72.6555 101.788 72.8482 101.596C73.0408 101.404 73.302 101.296 73.5744 101.295H94.6075C94.88 101.296 95.1411 101.404 95.3338 101.596C95.5264 101.788 95.6348 102.049 95.6351 102.321V105.686C95.6348 105.958 95.5264 106.219 95.3338 106.411C95.1411 106.603 94.88 106.711 94.6075 106.712V106.712Z" fill="#6C63FF"/>
<path d="M139.816 33.4789L104.28 51.6277L104.514 52.0858L140.051 33.937L139.816 33.4789Z" fill="#E5E5E5"/>
<path d="M104.513 99.2352L104.278 99.6934L139.818 117.837L140.052 117.379L104.513 99.2352Z" fill="#E5E5E5"/>
<path d="M193 27.0221C192.999 32.0018 191.62 36.8846 189.017 41.1322C186.414 45.3799 182.686 48.8274 178.246 51.0948C178.016 51.2132 177.784 51.329 177.552 51.4371C177.416 51.504 177.279 51.5658 177.142 51.6276C176.807 51.7794 176.467 51.9261 176.124 52.0625C174.905 52.5603 173.649 52.9656 172.369 53.2746C172.188 53.321 172.003 53.3621 171.82 53.4033C171.358 53.5062 170.893 53.5954 170.425 53.6709C167.869 54.0983 165.265 54.1589 162.692 53.8511C162.159 53.7893 161.63 53.7104 161.104 53.6143C160.855 53.568 160.604 53.5191 160.357 53.4676C160.324 53.4599 160.29 53.4522 160.256 53.4471C159.368 53.2604 158.491 53.0267 157.627 52.7471C157.163 52.5978 156.702 52.4382 156.251 52.2632C156.016 52.1732 155.784 52.0805 155.555 51.9853C155.442 51.939 155.328 51.8901 155.217 51.8412C150.731 49.9104 146.852 46.8035 143.992 42.8499C141.131 38.8964 139.395 34.2436 138.969 29.3849C138.542 24.5263 139.44 19.6429 141.568 15.2526C143.696 10.8624 146.974 7.12894 151.055 4.44818C155.136 1.76743 159.868 0.239317 164.748 0.0258913C169.628 -0.187534 174.476 0.921687 178.776 3.23592C183.076 5.55016 186.669 8.98314 189.173 13.1708C191.677 17.3585 192.999 22.1448 193 27.0221V27.0221Z" fill="#F1F1F1"/>
<path d="M193 112.978C192.994 117.332 191.937 121.621 189.919 125.481C187.902 129.341 184.982 132.659 181.408 135.154C181.342 135.2 181.274 135.247 181.207 135.29C180.816 135.561 180.416 135.821 180.006 136.065C179.746 136.225 179.48 136.379 179.215 136.531C178.895 136.711 178.573 136.884 178.246 137.051C178.171 137.089 178.096 137.128 178.019 137.164C177.746 137.303 177.47 137.437 177.189 137.563C177.174 137.571 177.158 137.576 177.143 137.584C177.05 137.625 176.954 137.668 176.857 137.71C176.251 137.977 175.632 138.224 175.001 138.446C174.957 138.464 174.91 138.479 174.864 138.495C173.418 139.002 171.93 139.381 170.418 139.627C170.131 139.678 169.843 139.72 169.554 139.758C169.508 139.766 169.459 139.774 169.412 139.779C169.018 139.83 168.621 139.871 168.222 139.905C168.175 139.91 168.129 139.913 168.082 139.915C167.783 139.941 167.482 139.959 167.178 139.972C166.765 139.99 166.353 140 165.935 140C165.35 140 164.768 139.982 164.19 139.946C163.687 139.913 163.187 139.869 162.693 139.807C162.391 139.771 162.089 139.73 161.793 139.684C161.466 139.635 161.138 139.578 160.816 139.516C160.656 139.485 160.496 139.452 160.337 139.418C160.311 139.413 160.282 139.408 160.257 139.403C159.999 139.349 159.744 139.292 159.491 139.228C158.489 138.987 157.503 138.686 156.537 138.327C156.207 138.204 155.88 138.075 155.555 137.941C155.455 137.9 155.354 137.856 155.256 137.813C155.078 137.738 154.903 137.658 154.728 137.578C154.596 137.519 154.465 137.457 154.333 137.396C154.055 137.267 153.782 137.131 153.509 136.989C153.289 136.878 153.07 136.76 152.856 136.642C152.851 136.639 152.849 136.636 152.843 136.634C148.666 134.329 145.173 130.963 142.719 126.876C140.265 122.789 138.936 118.127 138.869 113.362C138.801 108.597 139.997 103.9 142.334 99.745C144.672 95.5904 148.068 92.1268 152.179 89.7052C156.289 87.2837 160.968 85.9905 165.741 85.9566C170.513 85.9227 175.21 87.1494 179.355 89.5123C183.499 91.8752 186.945 95.2903 189.341 99.4114C191.737 103.532 193 108.213 193 112.978V112.978Z" fill="#F1F1F1"/>
<path d="M165.77 22.2585C163.824 22.2608 161.958 23.0337 160.582 24.4077C159.206 25.7818 158.432 27.6447 158.429 29.5879V35.0566C158.43 35.3176 158.534 35.5677 158.719 35.7521C158.904 35.9364 159.155 36.0398 159.416 36.0397H172.124C172.385 36.0399 172.636 35.9364 172.821 35.7521C173.006 35.5678 173.111 35.3176 173.111 35.0566V29.5879C173.109 27.6448 172.334 25.782 170.958 24.408C169.582 23.034 167.716 22.261 165.77 22.2585V22.2585Z" fill="#2F2E41"/>
<path d="M162.02 45.2684L161.316 42.1029C161.217 41.6531 160.987 41.2428 160.653 40.9243C160.357 40.6672 160.011 40.4752 159.635 40.3607C159.591 40.3504 159.548 40.3401 159.501 40.3323C159.482 40.3268 159.462 40.3225 159.442 40.3195C159.126 40.2646 158.802 40.2756 158.491 40.3518C158.18 40.4279 157.888 40.5675 157.633 40.7618C157.378 40.9562 157.167 41.201 157.011 41.481C156.856 41.7609 156.76 42.0699 156.73 42.3886L156.132 46.1228L155.217 51.8412C155.328 51.8901 155.442 51.939 155.555 51.9853C155.784 52.0805 156.016 52.1732 156.251 52.2632C156.702 52.4382 157.163 52.5978 157.627 52.747C158.491 53.0267 159.368 53.2604 160.256 53.447C160.29 53.4522 160.324 53.4599 160.357 53.4676C160.604 53.5191 160.855 53.568 161.105 53.6143L162.355 46.7765L162.02 45.2684Z" fill="#2F2E41"/>
<path d="M163.959 35.9578C166.931 35.9578 169.341 33.5521 169.341 30.5846C169.341 27.6171 166.931 25.2114 163.959 25.2114C160.987 25.2114 158.577 27.6171 158.577 30.5846C158.577 33.5521 160.987 35.9578 163.959 35.9578Z" fill="#FFB7B7"/>
<path d="M169.776 48.5676L168.626 39.5191L168.384 37.6018H168.381L168.273 37.5993C167.907 37.5864 167.551 37.5838 167.201 37.5967C165.049 37.6058 162.939 38.1886 161.089 39.2849C160.605 39.5799 160.143 39.9102 159.708 40.2732L159.687 40.2937L159.635 40.3607L157.808 42.7077L157.805 42.754L157.627 52.7471C158.491 53.0268 159.368 53.2604 160.257 53.4471C160.29 53.4522 160.324 53.4599 160.357 53.4677C160.605 53.5191 160.855 53.568 161.105 53.6143C161.63 53.7096 162.16 53.7885 162.692 53.8511C165.265 54.159 167.869 54.0983 170.425 53.671L169.776 48.5676Z" fill="#6C63FF"/>
<path d="M171.657 39.5783C170.811 38.5813 169.661 37.8873 168.384 37.6018H168.381C168.041 37.5253 167.694 37.4796 167.345 37.4654L167.255 37.4629L167.201 37.5967L162.87 48.0195L162.172 45.2349L161.089 39.2849L161.082 39.2412L160.919 39.3364C160.417 39.6249 159.943 39.9582 159.502 40.3323C157.745 41.8131 156.573 43.8691 156.194 46.1331C156.084 46.8039 156.043 47.4844 156.073 48.1636L156.251 52.2632C156.702 52.4382 157.164 52.5978 157.628 52.747C158.491 53.0267 159.368 53.2604 160.257 53.447C160.29 53.4522 160.324 53.4599 160.357 53.4676C160.605 53.5191 160.855 53.568 161.105 53.6143C161.631 53.7095 162.16 53.7885 162.693 53.8511C165.266 54.1589 167.87 54.0983 170.425 53.6709C170.894 53.5963 171.359 53.5071 171.82 53.4033C172.003 53.3621 172.188 53.3209 172.369 53.2746L171.98 52.1294L173.011 44.1798C173.116 43.361 173.05 42.5294 172.817 41.7373C172.584 40.9453 172.19 40.2101 171.657 39.5783V39.5783Z" fill="#2F2E41"/>
<path d="M172.936 39.7996C172.752 39.2331 172.356 38.7594 171.831 38.4771C171.305 38.1947 170.691 38.1255 170.116 38.2838C170.023 38.3076 169.932 38.3377 169.843 38.3739C169.415 38.5479 169.05 38.8454 168.792 39.2282C168.535 39.611 168.398 40.0618 168.399 40.5228L168.41 45.3327L169.776 48.5676L171.82 53.4033C172.003 53.3621 172.188 53.321 172.369 53.2746C173.65 52.9656 174.905 52.5603 176.124 52.0625C176.467 51.9261 176.807 51.7794 177.143 51.6276C177.279 51.5658 177.416 51.504 177.552 51.4371L172.936 39.7996Z" fill="#2F2E41"/>
<path d="M163.597 24.2272H162.499C160.959 24.2277 159.483 24.8388 158.394 25.9262C157.306 27.0135 156.694 28.488 156.694 30.0254V30.1334H164.466L164.546 29.0191L164.943 30.1334H166.139L166.299 27.9254L167.087 30.1334H169.402V30.0254C169.4 28.4885 168.789 27.0149 167.7 25.9279C166.612 24.8409 165.136 24.2293 163.597 24.2272Z" fill="#2F2E41"/>
<path d="M161.239 122.984C160.332 122.919 159.422 123.036 158.561 123.327C157.7 123.619 156.907 124.079 156.227 124.681C155.547 125.283 154.994 126.015 154.601 126.833C154.208 127.651 153.983 128.54 153.939 129.446L153.509 136.989C153.782 137.131 154.055 137.267 154.333 137.396C154.465 137.457 154.596 137.519 154.728 137.578C154.903 137.658 155.078 137.738 155.256 137.812C155.354 137.856 155.455 137.9 155.555 137.941C155.88 138.075 156.207 138.204 156.537 138.327C157.503 138.686 158.489 138.987 159.491 139.228C159.744 139.292 159.999 139.349 160.257 139.403C160.282 139.408 160.311 139.413 160.337 139.418C160.496 139.452 160.656 139.485 160.816 139.516L161.362 122.992L161.239 122.984Z" fill="#2F2E41"/>
<path d="M168.221 139.905C168.621 139.871 169.018 139.83 169.412 139.779C169.459 139.774 169.508 139.766 169.554 139.758C169.843 139.719 170.131 139.678 170.418 139.627C170.441 138.929 170.433 138.428 170.433 138.366L171.714 125.038L169.044 123.483L168.523 123.179L160.45 122.919L160.383 122.976L156.506 126.332L155.256 137.813C155.354 137.856 155.455 137.9 155.555 137.941C155.88 138.075 156.207 138.204 156.537 138.327C157.503 138.686 158.489 138.987 159.491 139.228C159.744 139.292 159.999 139.349 160.257 139.403C160.282 139.408 160.311 139.413 160.337 139.418C160.496 139.452 160.656 139.485 160.816 139.516C161.138 139.578 161.466 139.635 161.793 139.683C162.089 139.73 162.391 139.771 162.693 139.807C163.187 139.869 163.687 139.913 164.19 139.946C164.767 139.982 165.349 140 165.935 140C166.353 140 166.765 139.99 167.178 139.972C167.482 139.959 167.783 139.941 168.082 139.915L168.221 139.905Z" fill="#2F2E41"/>
<path d="M173.621 126.185L169.049 123.396L169.044 123.483L168.221 139.905C168.621 139.871 169.018 139.83 169.412 139.779C169.459 139.774 169.508 139.766 169.554 139.758C169.843 139.719 170.131 139.678 170.417 139.627C171.93 139.381 173.418 139.002 174.864 138.494C174.91 138.479 174.957 138.464 175.001 138.446L175.325 129.237C175.348 128.622 175.201 128.012 174.9 127.474C174.6 126.936 174.158 126.49 173.621 126.185V126.185Z" fill="#2F2E41"/>
<path d="M163.585 121.142C166.718 121.142 169.258 118.606 169.258 115.478C169.258 112.35 166.718 109.814 163.585 109.814C160.452 109.814 157.912 112.35 157.912 115.478C157.912 118.606 160.452 121.142 163.585 121.142Z" fill="#9F616A"/>
<path d="M161.534 107.115C167.247 105.47 168.869 110.198 168.869 110.198C171.623 112.022 169.898 114.309 169.898 114.309C170.593 114.463 169.204 118.523 168.741 118.421C168.493 118.366 167.858 119.123 167.319 119.842C167.134 119.841 166.949 119.859 166.768 119.895L167.814 116.031C167.814 116.031 164.288 115.492 163.207 113.796C162.173 112.173 158.768 111.661 157.799 112.745C157.742 112.433 157.625 112.136 157.454 111.869C157.321 111.666 157.148 111.493 156.946 111.36C157.802 107.725 161.534 107.115 161.534 107.115Z" fill="#2F2E41"/>
<path opacity="0.2" d="M168.082 139.915C167.783 139.941 167.482 139.959 167.177 139.972L167.971 135.617V135.918L168.082 139.915Z" fill="black"/>
</g>
<defs>
<clipPath id="clip0_138_7039">
<rect width="193" height="140" fill="white"/>
</clipPath>
</defs>
</svg>

<svg width="193" height="140" fill="none" xmlns="http://www.w3.org/2000/svg"><g clip-path="url(#a)"><path d="M89.432 104.063H1.028A1.025 1.025 0 0 1 0 103.037V21.068a1.026 1.026 0 0 1 1.028-1.026h88.404a1.03 1.03 0 0 1 1.028 1.026v81.969a1.026 1.026 0 0 1-1.028 1.026Z" fill="#F1F1F1"/><path d="M103.368 116.321H14.963a1.026 1.026 0 0 1-1.027-1.026V33.326a1.027 1.027 0 0 1 1.027-1.026h88.405a1.027 1.027 0 0 1 1.028 1.026v81.969a1.028 1.028 0 0 1-1.028 1.026Z" fill="#fff"/><path d="M103.368 116.321H14.963a1.026 1.026 0 0 1-1.027-1.026V33.326a1.027 1.027 0 0 1 1.027-1.026h88.405a1.027 1.027 0 0 1 1.028 1.026v81.969a1.028 1.028 0 0 1-1.028 1.026ZM14.963 32.71a.619.619 0 0 0-.616.615v81.97a.615.615 0 0 0 .616.615h88.405a.616.616 0 0 0 .616-.615V33.326a.617.617 0 0 0-.616-.615l-88.405-.001Z" fill="#E6E6E6"/><path d="M86.91 69.046H31.421a1.03 1.03 0 0 1-1.027-1.026V43.709a1.026 1.026 0 0 1 1.027-1.026h55.49a1.03 1.03 0 0 1 1.027 1.026V68.02a1.027 1.027 0 0 1-1.028 1.025Z" fill="#6C63FF"/><path d="M40.027 53.078a.698.698 0 0 0-.493 1.188c.13.131.308.205.493.205h38.278a.698.698 0 0 0 0-1.393H40.027Zm0 4.179a.698.698 0 0 0-.493 1.189c.13.13.308.204.493.204h19.541a.698.698 0 0 0 .493-1.188.698.698 0 0 0-.493-.205H40.027Z" fill="#fff"/><path d="M23.28 78.008a.698.698 0 0 0-.492 1.188c.13.13.307.204.492.205h71.772a.698.698 0 0 0 .492-1.189.698.698 0 0 0-.492-.204H23.28Zm0 4.179a.698.698 0 0 0-.492 1.189c.13.13.307.204.492.204h53.035a.698.698 0 0 0 .493-1.188.698.698 0 0 0-.493-.205H23.28Zm0 4.085a.698.698 0 0 0-.492 1.188c.13.13.307.204.492.205h71.772a.698.698 0 0 0 .492-1.189.698.698 0 0 0-.492-.204H23.28Zm0 4.179a.698.698 0 0 0-.492 1.189c.13.13.307.204.492.204h53.035a.698.698 0 0 0 .493-1.188.698.698 0 0 0-.493-.205H23.28Z" fill="#E6E6E6"/><path d="M94.608 106.712H73.573a1.025 1.025 0 0 1-1.028-1.026v-3.365a1.025 1.025 0 0 1 1.028-1.026h21.034a1.026 1.026 0 0 1 1.028 1.026v3.365a1.026 1.026 0 0 1-1.028 1.026Z" fill="#6C63FF"/><path d="M139.816 33.479 104.28 51.628l.234.458 35.537-18.149-.235-.458Zm-35.303 65.756-.235.458 35.54 18.144.234-.458-35.539-18.144Z" fill="#E5E5E5"/><path d="M193 27.022a27.015 27.015 0 0 1-3.983 14.11 27.072 27.072 0 0 1-12.893 10.93 26.194 26.194 0 0 1-3.755 1.213c-.181.046-.366.087-.549.128a23.99 23.99 0 0 1-1.395.268 27.258 27.258 0 0 1-12.798-.924 24.839 24.839 0 0 1-2.072-.762 27.053 27.053 0 0 1-11.563-9.135 26.989 26.989 0 0 1-2.424-27.597 27.038 27.038 0 0 1 9.487-10.805 27.099 27.099 0 0 1 27.721-1.212 27.048 27.048 0 0 1 10.397 9.935A27 27 0 0 1 193 27.022Zm0 85.956a27.068 27.068 0 0 1-3.081 12.503 27.112 27.112 0 0 1-8.712 9.809 20.65 20.65 0 0 1-1.201.775c-.26.16-.526.314-.791.466-.32.18-.642.353-.969.52-.075.038-.15.077-.227.113-.273.139-.549.273-.83.399-.015.008-.031.013-.046.021l-.286.126a26.04 26.04 0 0 1-1.856.736c-.044.018-.091.033-.137.049a26.112 26.112 0 0 1-4.446 1.132c-.287.051-.575.093-.864.131a27.385 27.385 0 0 1-8.738-.242 25.38 25.38 0 0 1-.479-.098l-.08-.015a18.947 18.947 0 0 1-.766-.175 25.794 25.794 0 0 1-4.235-1.415c-.178-.075-.353-.155-.528-.235-.132-.059-.263-.121-.395-.182a20.301 20.301 0 0 1-.824-.407 20.26 20.26 0 0 1-.653-.347c-.005-.003-.007-.006-.013-.008a27.053 27.053 0 0 1-10.124-9.758 26.99 26.99 0 0 1-.385-27.131 27.048 27.048 0 0 1 9.845-10.04 27.097 27.097 0 0 1 27.176-.193 27.047 27.047 0 0 1 9.986 9.9A26.99 26.99 0 0 1 193 112.977Z" fill="#F1F1F1"/><path d="M165.77 22.259a7.355 7.355 0 0 0-5.188 2.149 7.337 7.337 0 0 0-2.153 5.18v5.469a.987.987 0 0 0 .987.983h12.708a.987.987 0 0 0 .987-.983v-5.47a7.332 7.332 0 0 0-2.153-5.179 7.356 7.356 0 0 0-5.188-2.15Zm-3.75 23.009-.704-3.165a2.315 2.315 0 0 0-.663-1.179 2.791 2.791 0 0 0-1.018-.563c-.044-.01-.087-.02-.134-.029a2.325 2.325 0 0 0-2.771 2.056l-.598 3.735-.915 5.718a26.54 26.54 0 0 0 5.14 1.626c.247.052.498.101.748.147l1.25-6.837-.335-1.509Z" fill="#2F2E41"/><path d="M163.959 35.958a5.378 5.378 0 0 0 5.382-5.373 5.378 5.378 0 0 0-5.382-5.374 5.378 5.378 0 0 0-5.382 5.374 5.378 5.378 0 0 0 5.382 5.373Z" fill="#FFB7B7"/><path d="m169.776 48.568-1.15-9.049-.242-1.917h-.003l-.108-.003a14.873 14.873 0 0 0-1.072-.002 12.09 12.09 0 0 0-6.112 1.688c-.484.295-.946.625-1.381.988l-.021.02-.052.068-1.827 2.347-.003.046-.178 9.993a25.656 25.656 0 0 0 2.73.72 25.72 25.72 0 0 0 2.335.383c2.573.309 5.177.248 7.733-.179l-.649-5.103Z" fill="#6C63FF"/><path d="M171.657 39.578a6.014 6.014 0 0 0-3.273-1.976h-.003a5.794 5.794 0 0 0-1.036-.137l-.09-.002-.054.134-4.331 10.422-.698-2.784-1.083-5.95-.007-.044-.163.095a9.533 9.533 0 0 0-1.417.996 9.675 9.675 0 0 0-3.429 7.832l.178 4.1c.451.174.913.334 1.377.483a25.544 25.544 0 0 0 2.729.72 25.829 25.829 0 0 0 2.336.384 27.25 27.25 0 0 0 7.732-.18c.469-.075.934-.164 1.395-.268.183-.04.368-.082.549-.128l-.389-1.146 1.031-7.95a5.966 5.966 0 0 0-1.354-4.6Z" fill="#2F2E41"/><path d="M172.936 39.8a2.313 2.313 0 0 0-2.82-1.516 2.321 2.321 0 0 0-1.717 2.239l.011 4.81 1.366 3.235 2.044 4.835a26.153 26.153 0 0 0 4.304-1.34c.343-.137.683-.284 1.019-.435.136-.062.273-.124.409-.19L172.936 39.8Zm-9.339-15.573h-1.098c-1.54 0-3.016.612-4.105 1.7a5.796 5.796 0 0 0-1.7 4.098v.108h7.772l.08-1.114.397 1.114h1.196l.16-2.208.788 2.208h2.315v-.108a5.799 5.799 0 0 0-1.702-4.097 5.817 5.817 0 0 0-4.103-1.7Zm-2.358 98.757a6.836 6.836 0 0 0-5.012 1.697 6.818 6.818 0 0 0-2.288 4.765l-.43 7.543c.273.142.546.278.824.407.132.061.263.123.395.182.175.08.35.16.528.234.098.044.199.088.299.129a25.794 25.794 0 0 0 3.936 1.287c.253.064.508.121.766.175l.08.015c.159.034.319.067.479.098l.546-16.524-.123-.008Z" fill="#2F2E41"/><path d="M168.221 139.905a27.267 27.267 0 0 0 1.333-.147c.289-.039.577-.08.864-.131.023-.698.015-1.199.015-1.261l1.281-13.328-2.67-1.555-.521-.304-8.073-.26-.067.057-3.877 3.356-1.25 11.481a30.757 30.757 0 0 0 1.281.514c.966.359 1.952.66 2.954.901.253.064.508.121.766.175l.08.015a22.368 22.368 0 0 0 1.456.265c.296.047.598.088.9.124.494.062.994.106 1.497.139a28.025 28.025 0 0 0 3.892-.031l.139-.01Z" fill="#2F2E41"/><path d="m173.621 126.185-4.572-2.789-.005.087-.823 16.422a27.267 27.267 0 0 0 1.333-.147c.289-.039.577-.08.863-.131a26.009 26.009 0 0 0 4.447-1.133c.046-.015.093-.03.137-.048l.324-9.209a3.37 3.37 0 0 0-1.704-3.052Z" fill="#2F2E41"/><path d="M163.585 121.142a5.669 5.669 0 0 0 5.673-5.664 5.669 5.669 0 0 0-5.673-5.664 5.669 5.669 0 0 0-5.673 5.664 5.669 5.669 0 0 0 5.673 5.664Z" fill="#9F616A"/><path d="M161.534 107.115c5.713-1.645 7.335 3.083 7.335 3.083 2.754 1.824 1.029 4.111 1.029 4.111.695.154-.694 4.214-1.157 4.112-.248-.055-.883.702-1.422 1.421a2.752 2.752 0 0 0-.551.053l1.046-3.864s-3.526-.539-4.607-2.235c-1.034-1.623-4.439-2.135-5.408-1.051a2.434 2.434 0 0 0-.345-.876 1.772 1.772 0 0 0-.508-.509c.856-3.635 4.588-4.245 4.588-4.245Z" fill="#2F2E41"/><path opacity=".2" d="M168.082 139.915c-.299.026-.6.044-.905.057l.794-4.355v.301l.111 3.997Z" fill="#000"/></g><defs><clipPath id="a"><path fill="#fff" d="M0 0h193v140H0z"/></clipPath></defs></svg>
